frontend/public/svg/e-commerce/box-2.svg

<svg width="163" height="162" viewBox="0 0 163 162" fill="none" xmlns="http://www.w3.org/2000/svg">
<path d="M84.367 0.884521C106.873 1.34396 123.606 1.67961 140.339 2.036C141.798 2.05096 143.255 2.15595 144.702 2.35038C154.622 3.80155 159.723 10.2442 161.11 19.4152C162.071 25.7816 161.901 32.3999 161.559 38.8694C160.929 50.7491 159.397 62.583 158.999 74.4614C158.65 84.8768 159.102 95.3395 159.636 105.759C160.184 116.428 160.566 127.067 159.298 137.7C159.082 139.483 158.753 141.25 158.313 142.99C155.811 152.941 149.343 158.511 139.26 159.865C135.708 160.405 132.121 160.683 128.528 160.695C106.073 160.367 83.6142 160.072 61.1665 159.423C49.0571 159.073 36.9622 158.122 24.8711 157.275C21.7378 157.021 18.6369 156.46 15.6129 155.601C7.60559 153.41 3.03161 148.036 2.11471 139.815C1.55513 134.909 1.26172 129.976 1.23628 125.037C1.18443 103.139 1.18207 81.2407 1.37569 59.3435C1.44723 51.2705 2.29444 43.2041 2.43358 35.1285C2.47201 30.0927 3.03236 25.0744 4.10583 20.1542C5.64232 13.3808 9.30019 8.67524 15.9436 6.24419C23.7324 3.32041 31.9536 1.71404 40.2701 1.49054C56.8893 1.15187 73.5164 1.02432 84.367 0.884521ZM112.499 9.83066C112.37 10.4408 112.286 11.0595 112.248 11.6821C112.265 24.1453 112.328 36.6092 112.325 49.0731C112.325 54.1223 112.28 59.1753 112.081 64.2199C111.892 68.9803 110.339 70.2582 105.655 70.4039C97.3546 70.6665 89.0572 71.0544 80.7591 71.4088C73.2467 71.7304 65.738 72.1577 58.223 72.3821C53.8347 72.5134 52.0226 70.7754 52.0941 66.3136C52.3429 50.8239 52.7503 35.3345 53.0693 19.8449C53.1389 16.4254 53.0793 13.0039 53.0793 9.2647C46.873 9.63356 40.578 9.75242 34.348 10.4508C28.4364 11.1732 22.6779 12.835 17.2902 15.3733C15.9948 15.9131 14.8504 16.7605 13.9564 17.8422C13.0623 18.924 12.4454 20.2076 12.1591 21.5816C11.4287 24.9768 10.4978 28.326 9.3716 31.6112C8.14759 35.1083 7.59102 38.8038 7.73075 42.5062C7.97885 64.401 8.11609 86.2978 8.45279 108.191C8.60637 118.178 8.96841 128.162 9.53857 138.141C9.99407 146.092 12.5246 148.73 20.312 150.467C20.9633 150.64 21.6241 150.775 22.291 150.871C28.9857 151.562 35.6745 152.568 42.3895 152.84C58.8767 153.511 75.3784 153.836 91.8735 154.311C97.0363 154.46 102.199 154.798 107.363 154.77C116.677 154.723 126.008 154.789 135.296 154.21C145.534 153.572 149.898 149.323 151.807 139.287C153.522 130.277 153.448 121.157 152.771 112.095C151.839 99.6536 151.162 87.2147 151.63 74.7496C151.977 65.5574 152.878 56.3871 153.311 47.197C153.645 40.1368 154.169 33.0203 153.656 25.9974C152.834 14.7596 148.833 10.3065 137.868 10.2133C134.951 10.189 132.035 9.8766 129.117 9.84313C123.633 9.78668 118.147 9.83066 112.499 9.83066ZM59.8375 9.22526C59.1943 28.284 60.186 47.0306 60.822 66.2611L103.728 63.9023C104.669 60.8254 104.867 12.4239 104.022 9.22945L59.8375 9.22526Z" fill="black"/>
<path d="M144.46 129.786C147.003 129.833 149.081 131.387 149.333 133.644C149.589 135.95 148.014 137.78 145.113 138.436C144.238 138.63 143.346 138.737 142.45 138.754C127.307 139.126 112.163 139.481 97.02 139.82C95.1153 139.9 93.208 139.85 91.3099 139.673C88.9641 139.411 87.6935 138.11 87.7151 136.392C87.7374 134.611 88.9622 133.594 91.4825 133.438C106.035 132.543 120.592 131.697 135.143 130.774C138.158 130.584 141.161 130.145 144.46 129.786Z" fill="black"/>
<path d="M139.164 106.004C139.749 110.439 140.303 114.386 140.777 118.343C141.033 119.999 141.131 121.675 141.071 123.35C141.044 124.257 140.687 125.123 140.066 125.786C139.446 126.449 138.605 126.863 137.702 126.951C136.804 127.101 135.882 126.908 135.12 126.409C134.358 125.911 133.812 125.143 133.59 124.26C133.223 122.977 133.042 121.648 133.053 120.315C132.967 115.948 133.002 111.579 132.938 107.212C132.92 106.017 132.721 104.824 132.535 102.918C131.035 104.54 129.984 105.772 128.829 106.898C127.659 108.096 126.398 109.202 125.057 110.206C123.852 111.06 122.275 111.095 121.47 109.8C120.922 108.917 121.063 107.539 121.109 106.392C121.127 105.932 121.703 105.48 122.049 105.042C124.339 102.145 126.655 99.2692 128.924 96.3564C131.442 93.1239 133.997 92.4906 137.291 94.896C140.716 97.398 143.855 100.288 147.11 103.023C147.441 103.327 147.734 103.668 147.984 104.041C149.3 105.847 149.507 107.537 148.431 108.627C147.027 110.05 145.347 109.832 143.787 108.994C142.336 108.214 141.006 107.209 139.164 106.004Z" fill="black"/>
<path d="M104.187 105.621C104.484 109.028 104.787 112.101 105.01 115.18C105.196 117.75 105.327 120.323 105.404 122.9C105.436 123.793 105.319 124.686 105.056 125.54C104.649 126.798 103.698 127.874 102.351 127.591C101.292 127.367 99.9171 126.61 99.5226 125.719C98.8479 124.061 98.4876 122.292 98.4606 120.502C98.3031 116.133 98.3832 111.755 98.3445 107.38C98.3353 106.308 98.2395 105.237 98.1476 103.504C95.9626 105.453 94.2397 106.986 92.5208 108.524C91.6859 109.271 90.8977 110.078 90.0175 110.766C88.9398 111.609 87.6895 111.8 86.6459 110.823C85.58 109.824 85.731 108.554 86.5803 107.475C87.6153 106.153 88.7219 104.878 89.8797 103.661C92.274 101.144 94.7116 98.6726 97.1512 96.1963C99.1032 94.2168 100.898 93.8735 103.146 95.5176C106.673 98.0964 110.027 100.911 113.444 103.638C113.787 103.929 114.098 104.255 114.371 104.612C115.632 106.18 115.929 108.142 115.093 109.266C114.318 110.308 112.271 110.587 110.433 109.588C108.388 108.477 106.493 107.103 104.187 105.621Z" fill="black"/>
</svg>

<svg xmlns="http://www.w3.org/2000/svg" width="163" height="162" fill="none" viewBox="0 0 163 162"><path fill="#000" d="M84.367.885c22.506.459 39.239.795 55.972 1.151q2.19.023 4.363.314c9.92 1.452 15.021 7.894 16.408 17.065.961 6.367.791 12.985.449 19.454-.63 11.88-2.162 23.714-2.56 35.592-.349 10.416.103 20.879.637 31.298.548 10.669.93 21.308-.338 31.941a42 42 0 0 1-.985 5.29c-2.502 9.951-8.97 15.521-19.053 16.875-3.552.54-7.139.818-10.732.83-22.455-.328-44.914-.623-67.361-1.272-12.11-.35-24.205-1.301-36.296-2.148a48 48 0 0 1-9.258-1.674c-8.007-2.191-12.581-7.565-13.498-15.786a137 137 0 0 1-.879-14.778c-.052-21.898-.054-43.796.14-65.693.071-8.074.918-16.14 1.058-24.215a73 73 0 0 1 1.672-14.975C5.642 13.381 9.3 8.675 15.944 6.244A75 75 0 0 1 40.27 1.491c16.62-.34 33.246-.467 44.097-.606m28.132 8.946q-.194.916-.251 1.851c.017 12.463.08 24.927.077 37.391 0 5.05-.045 10.102-.244 15.147-.189 4.76-1.742 6.038-6.426 6.184-8.3.263-16.598.65-24.896 1.005-7.512.321-15.021.749-22.536.973-4.388.131-6.2-1.607-6.129-6.068.249-15.49.656-30.98.975-46.47.07-3.419.01-6.84.01-10.58-6.206.37-12.501.488-18.731 1.187a56 56 0 0 0-17.058 4.922 8.63 8.63 0 0 0-5.13 6.209 88 88 0 0 1-2.788 10.03A29.6 29.6 0 0 0 7.73 42.505c.248 21.895.385 43.792.722 65.685q.23 14.981 1.086 29.95c.455 7.951 2.986 10.589 10.773 12.326q.978.26 1.979.404c6.695.691 13.384 1.697 20.098 1.969 16.488.671 32.99.996 49.485 1.471 5.162.149 10.325.487 15.489.459 9.314-.047 18.645.019 27.933-.56 10.238-.638 14.602-4.887 16.511-14.923 1.715-9.01 1.641-18.13.964-27.192-.932-12.441-1.609-24.88-1.141-37.345.347-9.193 1.248-18.363 1.681-27.553.334-7.06.858-14.177.345-21.2-.822-11.237-4.823-15.69-15.788-15.784-2.917-.024-5.833-.336-8.751-.37-5.484-.056-10.97-.012-16.618-.012m-52.661-.606c-.644 19.059.348 37.806.984 57.036l42.906-2.359c.941-3.077 1.139-51.478.294-54.673z"/><path fill="#000" d="M144.46 129.786c2.543.047 4.621 1.601 4.873 3.858.256 2.306-1.319 4.136-4.22 4.792-.875.194-1.767.301-2.663.318q-22.715.558-45.43 1.066c-1.905.08-3.812.03-5.71-.147-2.346-.262-3.617-1.563-3.595-3.281.022-1.781 1.247-2.798 3.767-2.954 14.553-.895 29.11-1.741 43.661-2.664 3.015-.19 6.018-.629 9.317-.988m-5.296-23.782c.585 4.435 1.139 8.382 1.613 12.339.256 1.656.354 3.332.294 5.007a3.73 3.73 0 0 1-3.369 3.601 3.623 3.623 0 0 1-4.112-2.691 14 14 0 0 1-.537-3.945c-.086-4.367-.051-8.736-.115-13.103-.018-1.195-.217-2.388-.403-4.294-1.5 1.622-2.551 2.854-3.706 3.98a32.5 32.5 0 0 1-3.772 3.308c-1.205.854-2.782.889-3.587-.406-.548-.883-.407-2.261-.361-3.408.018-.46.594-.912.94-1.35 2.29-2.897 4.606-5.773 6.875-8.686 2.518-3.232 5.073-3.865 8.367-1.46 3.425 2.502 6.564 5.392 9.819 8.127q.498.457.874 1.018c1.316 1.806 1.523 3.496.447 4.586-1.404 1.423-3.084 1.205-4.644.367-1.451-.78-2.781-1.785-4.623-2.99m-34.977-.383c.297 3.407.6 6.48.823 9.559q.279 3.855.394 7.72a8 8 0 0 1-.348 2.64c-.407 1.258-1.358 2.334-2.705 2.051-1.059-.224-2.434-.981-2.828-1.872a14.4 14.4 0 0 1-1.062-5.217c-.158-4.369-.078-8.747-.117-13.122-.009-1.072-.104-2.143-.196-3.876-2.185 1.949-3.908 3.482-5.627 5.02-.835.747-1.623 1.554-2.504 2.242-1.077.843-2.328 1.034-3.371.057-1.066-.999-.915-2.269-.066-3.348a53 53 0 0 1 3.3-3.814c2.394-2.517 4.832-4.988 7.271-7.465 1.952-1.98 3.747-2.322 5.995-.678 3.527 2.578 6.881 5.393 10.298 8.12q.516.438.927.974c1.261 1.568 1.558 3.53.722 4.654-.775 1.042-2.822 1.321-4.66.322-2.045-1.111-3.94-2.485-6.246-3.967"/></svg>
